svgs/regular/value-absolute.svg

<svg xmlns="http://www.w3.org/2000/svg" viewBox="0 0 512 512"><!-- Font Awesome Pro 6.0.0-alpha2 by @fontawesome - https://fontawesome.com License - https://fontawesome.com/license (Commercial License) --><path d="M24 32C10.75 32 0 42.75 0 56V456C0 469.25 10.75 480 24 480S48 469.25 48 456V56C48 42.75 37.25 32 24 32ZM368.969 143.031C359.594 133.656 344.406 133.656 335.031 143.031L256 222.062L176.969 143.031C167.594 133.656 152.406 133.656 143.031 143.031S133.656 167.594 143.031 176.969L222.062 256L143.031 335.031C133.656 344.406 133.656 359.594 143.031 368.969C147.719 373.656 153.844 376 160 376S172.281 373.656 176.969 368.969L256 289.938L335.031 368.969C339.719 373.656 345.844 376 352 376S364.281 373.656 368.969 368.969C378.344 359.594 378.344 344.406 368.969 335.031L289.938 256L368.969 176.969C378.344 167.594 378.344 152.406 368.969 143.031ZM488 32C474.75 32 464 42.75 464 56V456C464 469.25 474.75 480 488 480S512 469.25 512 456V56C512 42.75 501.25 32 488 32Z"/></svg>

<svg xmlns="http://www.w3.org/2000/svg" viewBox="0 0 512 512"><!--! Font Awesome Pro 6.4.0 by @fontawesome - https://fontawesome.com License - https://fontawesome.com/license (Commercial License) Copyright 2023 Fonticons, Inc. --><path d="M24 32C10.7 32 0 42.7 0 56V456c0 13.3 10.7 24 24 24s24-10.7 24-24V56c0-13.3-10.7-24-24-24zM177 143c-9.4-9.4-24.6-9.4-33.9 0s-9.4 24.6 0 33.9l79 79-79 79c-9.4 9.4-9.4 24.6 0 33.9s24.6 9.4 33.9 0l79-79 79 79c9.4 9.4 24.6 9.4 33.9 0s9.4-24.6 0-33.9l-79-79 79-79c9.4-9.4 9.4-24.6 0-33.9s-24.6-9.4-33.9 0l-79 79-79-79zM512 56c0-13.3-10.7-24-24-24s-24 10.7-24 24V456c0 13.3 10.7 24 24 24s24-10.7 24-24V56z"/></svg>
